X:1
T:Title
T:Maestro - The Holiday
T:Hans Zimmer Arranged by Dani & Alba
C:Composer
%%score { 1 | 2 }
L:1/8
Q:1/4=100
M:3/4
K:C
V:1 treble nm="Piano" snm="Pno."
V:2 bass 
V:1
!p!"^\n\n" z6 | z6 | [EG]2 [Ec]3 [DB] | [Fd]6 | [Ec]6- | [Ec]6 | [EG]2 [Ec]2 [DB]2 | %7
 [Fd]2 [Ec]2 [Af]2 | [Af]2 [Ge]2 [Fd]2 | [Fd]2 [Ac]3 [GB] | [FA]6 | [FA]2 [Ac]2 [GB]2 | [EG]6- | %13
 [EG]6 |!f!!f!!f! [CEA]6 | [Ee]2 [Dd]2 [Cc]2 | [G,G]6 | [Cc]2 [Dd]2 [Ee]2 | [Ee]2 [Dd]3 [Cc] | %19
 [Ee]2 [Dd]3 [Cc] | [G,G]6 | [Ee]2 [Ff]2 [Gg]2 | [Aa]6 | [Cc]2 [Dd]2 [Ee]2 | [Gg]6 | %25
 [Cc]2 [Dd]2 [Ee]2 | [Gg]2 [Ff]2 [Ee]2 | [Ee]3 [G,G] [Cc]2 | [Gg]2 [Ff]2 [Ee]2 | %29
 [Ee]2 [Dd]2 [Cc]2 | [Ee]6 | [Cc]2 [Dd]2 [Ee]2 |!>(! [Ee]6!>)! | !fermata![Dd]6 || %34
[M:4/4] (3(DEG (3dEc (3DEG (3dEc) | (3(DFG (3cDB (3DFG (3ADG) | (3(DEG (3dEc (3DEG (3dEc) | %37
 (3(DFG (3cDB (3DFG (3AD!fermata!G) ||[M:3/4] [EG]2 [Ec]3 [DB] | [Fd]6 | [Ec]6 | [Ec]6 |] %42
V:2
 C,G, C,G, C,G, | C,G, C,G, C,G, | C,G, C,G, C,G, | C,G, C,G, C,G, | C,G, C,G, C,G, | %5
 C,G, C,G, C,G, | C,G, C,G, C,G, | C,G, C,G, C,G, | C,G, C,G, C,G, | C,G, C,G, C,G, | %10
 F,,C, F,,C, F,,C, | F,,C, F,,C, F,,C, | C,G, C,G, C,G, | C,G, C,G, C,G, | [A,,E,]6- | [A,,E,]6 | %16
 [C,,G,,]6- | [C,,G,,]6 | [A,,E,]6- | [A,,E,]6 | [C,,G,,]6- | [C,,G,,]6 | [A,,E,]6- | [A,,E,]6 | %24
 [G,,D,]6- | [G,,D,]6 | [C,G,]6- | [C,G,]6 | [C,G,]6- | [C,G,]6 | [A,,E,]6- | [A,,E,]6 | [C,G,]6 | %33
 [G,,D,]6 ||[M:4/4] z8 | z8 | z8 | z8 ||[M:3/4] [C,G,]6 | [C,G,]6 | C,2 E,2 G,2 | C6 |] %42

